X:1
T:City of Philadelphia
M:6/8
L:1/8
K:D
A|"D"dfa afd|"A"ceg gec|"D"dfa afd|"A"ABA AFD|!
"D"dfa afd|"A"ceg gec|"D"dfa "A"aec|"D"dAF D2|!
z|"D"AFA AFA|"G"BGB BGB|"A"cAc cAc|"D"dAF DFA|!
"D"AFA AFA|"G"BGB BGB|"D"ABG "A"FGE|"D"D2DD2|]
